packages/ffe-icons/icons/open/300/md/heat_pump.svg

<svg xmlns="http://www.w3.org/2000/svg" height="24" viewBox="0 -960 960 960" width="24"><path d="M480-254.616q-94.23 0-159.807-65.577Q254.616-385.77 254.616-480q0-94.23 65.577-159.999Q385.77-705.768 480-705.768q94.23 0 159.999 65.769Q705.768-574.23 705.768-480q0 94.23-65.769 159.807Q574.23-254.616 480-254.616Zm-23.846-61.845v-106.54L381.153-348q16.693 12.462 35.231 20.693 18.539 8.231 39.77 10.846Zm47.692 0q20.231-2.615 39.27-10.654 19.038-8.039 35.731-20.5l-75.001-75.001v106.155Zm108.539-64.692q12.461-16.693 20.5-35.731 8.039-19.039 10.654-39.27H537.384l75.001 75.001Zm-75.001-122.693h106.155q-2.615-20.231-10.654-39.27-8.039-19.038-20.5-35.731l-75.001 75.001Zm-33.538-33.153L578.847-612q-16.693-12.462-35.231-20.693-18.539-8.231-39.77-10.846v106.54ZM480-446.539q14.307 0 23.884-9.577T513.461-480q0-14.307-9.577-23.884T480-513.461q-14.307 0-23.884 9.577T446.539-480q0 14.307 9.577 23.884T480-446.539Zm-23.846-90.845v-106.155q-20.231 2.615-39.27 10.654-19.038 8.039-35.731 20.5l75.001 75.001Zm-139.693 33.538h106.155l-75.001-75.001q-12.461 16.693-20.5 35.731-8.039 19.039-10.654 39.27Zm31.154 122.693 75.001-75.001h-106.54q3 20.231 11.231 39.27 8.231 19.038 20.308 35.731ZM212.309-140.001q-30.308 0-51.308-21t-21-51.308v-535.382q0-30.308 21-51.308t51.308-21h535.382q30.308 0 51.308 21t21 51.308v535.382q0 30.308-21 51.308t-51.308 21H212.309Zm0-59.999h535.382q4.616 0 8.463-3.846 3.846-3.847 3.846-8.463v-535.382q0-4.616-3.846-8.463-3.847-3.846-8.463-3.846H212.309q-4.616 0-8.463 3.846-3.846 3.847-3.846 8.463v535.382q0 4.616 3.846 8.463 3.847 3.846 8.463 3.846ZM200-760V-200-760Z"/></svg>

<svg xmlns="http://www.w3.org/2000/svg" height="24" viewBox="0 -960 960 960" width="24"><path d="M480-254.62q-94.23 0-159.81-65.57-65.57-65.58-65.57-159.81t65.57-160q65.58-65.77 159.81-65.77T640-640q65.77 65.77 65.77 160T640-320.19q-65.77 65.57-160 65.57Zm-23.85-61.84V-423l-75 75q16.7 12.46 35.23 20.69 18.54 8.23 39.77 10.85Zm47.7 0q20.23-2.62 39.27-10.65 19.03-8.04 35.73-20.51l-75-75v106.16Zm108.53-64.69q12.47-16.7 20.51-35.73 8.03-19.04 10.65-39.27H537.38l75 75Zm-75-122.7h106.16q-2.62-20.23-10.65-39.27-8.04-19.03-20.51-35.73l-75 75ZM503.85-537l75-75q-16.7-12.46-35.23-20.69-18.54-8.23-39.77-10.85V-537ZM480-446.54q14.31 0 23.88-9.58 9.58-9.57 9.58-23.88 0-14.31-9.58-23.88-9.57-9.58-23.88-9.58-14.31 0-23.88 9.58-9.58 9.57-9.58 23.88 0 14.31 9.58 23.88 9.57 9.58 23.88 9.58Zm-23.85-90.84v-106.16q-20.23 2.62-39.27 10.65-19.03 8.04-35.73 20.51l75 75Zm-139.69 33.53h106.16l-75-75q-12.47 16.7-20.51 35.73-8.03 19.04-10.65 39.27Zm31.16 122.7 75-75H316.08q3 20.23 11.23 39.27 8.23 19.03 20.31 35.73ZM212.31-140Q182-140 161-161q-21-21-21-51.31v-535.38Q140-778 161-799q21-21 51.31-21h535.38Q778-820 799-799q21 21 21 51.31v535.38Q820-182 799-161q-21 21-51.31 21H212.31Zm0-60h535.38q4.62 0 8.46-3.85 3.85-3.84 3.85-8.46v-535.38q0-4.62-3.85-8.46-3.84-3.85-8.46-3.85H212.31q-4.62 0-8.46 3.85-3.85 3.84-3.85 8.46v535.38q0 4.62 3.85 8.46 3.84 3.85 8.46 3.85ZM200-760v560-560Z"/></svg>
